X: 30015
T: Off She Goes
R: jig
M: 6/8
K: Dmajor
F2 A G2 B|ABc d3|F2 A G2 B|AFD E3|
F2 A G2 B|ABc d3|faf g2 f|edc d3||
f/g/af d2 f|g/a/bg e2 g|f/g/af def|ecA efg|
f/g/af d2 f|g/a/bg e2 g|faf g2 f|edc d3||

